X: 4814
T: Boys Of The Town, The
R: jig
M: 6/8
K: Gmajor
G3 GBd|edB dBA|G3 GBd|edB AFD|
G3 GBd|edB g2 f|edB AGA|BGF G2:|
def g3|afd edB|def g3|afd e2 d|
def g2 b|faa efg|edB AGA|BGF G2:|

